X:1
T:Title
L:1/8
Q:1/4=90
M:3/4
K:Eb
V:1 treble nm="Church Organ, Staff"
V:1
 e2 d>c BG | FE F4 | G2 E4 | E2 G4 | G2 B_G B2- | BG BF B2- | Bc dB d2- | dB dB d2- | dc c4 | %9
w: By~H.~Davan~Wetton * * * *|||||||||
 d2 B4 | e2 d>c BG | FE F4 | G2 E4 | E2 G4 | G2 B3 G | AB B_d c2- | cc f3 e | dc dc B2 | c2 A4 | %19
w: ||||||||||
 G2 E4 | E2 G3 F | EF G>F E2 | G2 B4 | FG- G2- G/ z/ B- | Bd c B3 | df e d2 f- | f d3 cB | %27
w: ||||||||
 cA G F2 G- | GE- E2- E/ z/ E- | EG- G2- G/ z/ z |] %30
w: |||

